X:231
T:the Graemsay Jig
O:scotland
R:Jig
M:6/8
A:Orkney
K:D
[A3D3] BAF|A2B d2e|faa baf|e>fe edB|\
[A3D3] BAF|A2B d2e|faf e2d|d3-d2B:|
|:ABd B2A|ABd B2A|faa baf|e>fe edB|\
ABd B2A|ABd B2A|faf e2d|d3-d2:|
